!! 00000] TT[WS
!!!OTL: Tiao fenqiang
!!!ARE: Asia, China,ÿShanxi Dadong
!! Ethnic Group: Han
!! WI, 102
!!!SCT: J0120
!!!YEM: Copyright 1995, estate of Helmut Schaffrath.
**kern
*ICvox
*Ivox
*M2/4
*k[b-]
*F:
{8.f
16g
8f
8g
=1
8f
8d
4c
=2
8cc
4cc
8ff
=3
8ff
16dd
16cc
4b-}
=4
{8ff
8dd
8cc
8dd
=5
8cc
8a
4g
=6
8g
8f
8d
8f
=7
2g}
=8
{8g
16g
16a
4cc
=9
8b-
8dd
4a
=10
8g
8g
8cc
8g
=11
2f}
=12
{8cc
8cc
8d
8f
=13
8g
8a
4g
=14
8d
8d
8f
8d
=15
2c}
==
!!!AGN: Xiaodiao. Qingge
!!!ONB: ESAC (Essen Associative Code) Database: CHINA
!!!AMT: simple duple
!!!AIN: vox
!!!EED: Helmut Schaffrath
!!!EEV: 1.0
*-
